X: 1054
T: Hicazkâr Peşrev
C: Tanburî Cemil Bey
O: Turkey
F: http://compmusic.upf.edu/node/140
N: hicazkar--pesrev--muhammes----tanburi_cemil_bey
N: makam= hicazkar
N: form= pesrev
N: usul= muhammes = 32/4
M: 32/4
L: 1/16
K: C _1/4B _7/8e _7/8A ^f
Q: 1/4=72
%%MIDI tuningsystem comma53
g8 (3a2g2f2 g2 a2  | g2 a2 g2 f2 e2 f2 e2 d2  | \
w:  1. HANE  |   | 
e2 f2 g4 f4 g4  | a3 g a2 b2 a2 b2 g4  | 
w:   |   | 
z2 g4 a2 z2 f4 g2  | z2 e4 f g f e d c d2 e2  | \
w:   |   | 
d2 c2 c2 B2 B2 A2 A2 G2  | 
w:   | 
G3 A B2 c2 d2 e2 f2 g2  | g2 a2 g2 f2 g4 a2 b2  | \
w:   |   | 
d'2 c'2 b2 a2 g2 f2 e4  | 
w:   | 
f2 g2 f2 e2 f2 g2 b2 a2  | a2 g2 g2 f2 e3 d c2 B2  | \
w:   |   | 
c4 g4 f2 g2 =a2 _b2  | 
w:   | 
=a2 g2 g2 f2 f3 e d4  | z2 =a2 g2 f2 f2 e2 e2 d2  | \
w:   |   | 
d6 =a _b a g g f g4  | 
w:   | 
=a2 _b4 a2 b a g2 g f e2  | f g a4 g f g f e2 e d c2  | \
w:  TESLİM  |   | 
d3 e f2 g2 f2 e2 d2 c2  | 
w:   | 
d2 e2 d2 c2 B3 A G4  | B3 d c3 e d3 f e2 f2  | \
w:   |   | 
e3 d c3 e d2 e2 d2 c2  | 
w:   | 
B3 A G2 B2 A3 G F2 G2  | F2 G2 A B A G G4 z4  | \
w:   |   | 
c4 d4 d4 c2 d2  | 
w:  2. HANE  | 
_2/4e2 =f2 e2 d2 g g f e d4  | g4 =a8 g2 a2  | \
w:   |   | 
_b2 c'2 b2 =a2 a g g =f g4  | 
w:   | 
=f4 g4 f2 g2 _b2 c'2  | _b2 a2 g2 =f2 _e3 d c2 d2  | \
w:   |   | 
_B2 c2 B2 _A2 B2 A2 A2 G2  | 
w:   | 
G6 d e d c B c d4  | G3 A B2 c2 d2 e2 d c c B  | \
w:   |   | 
c2 d2 e f e d d8  | 
w:   | 
d2 e4 d c B c d4 c B  | A2 B2 c2 e2 d2 c2 B2 A2  | \
w:   |   | 
G3 A B2 c2 d2 e2 d2 c2  | 
w:   | 
d2 e2 f2 g2 f2 e2 d2 c2  | z2 =a2 g2 f2 f3 e e3 d  | \
w:   |   | 
d6 =a _b a g g f g4  | 
w:   | 
=a2 _b4 a2 b a g2 g f e2  | f g a4 g f g f e2 e d c2  | \
w:  TESLİM  |   | 
d3 e f2 g2 f2 e2 d2 c2  | 
w:   | 
d2 e2 d2 c2 B3 A G4  | B3 d c3 e d3 f e2 f2  | \
w:   |   | 
e3 d c3 e d2 e2 d2 c2  | 
w:   | 
B3 A G2 B2 A3 G F2 G2  | F2 G2 A B A G G4 z4  | \
w:   |   | 
(3_a2g2=f2 (3_e2d2c2 _2/4e2 f2 g2 a2  | 
w:  3. HANE  | 
g =f f _1/4e b a a g g8  | b2 c'4 d'2 b3 a g2 =f2  | \
w:   |   | 
=f3 _1/4e e3 d d f e d d4  | 
w:   | 
z2 d'4 a2 c'2 d'2 e'2 f'2  | d'2 c'4 _b2 _a3 g =f2 e'2  | \
w:   |   | 
d'2 c'4 b2 b3 a a3 g  | 
w:   | 
g6 =f2 b a a g g4  | g3 a b2 c'2 d'2 e'2 d'2 c'2  | \
w:   |   | 
b2 a2 g2 =f2 e'3 d' c'4  | 
w:   | 
z2 a4 a g g3 =f f3 _2/4e  | =f6 _1/4e2 d e d e f4  | \
w:   |   | 
_1/4e3 =f g2 =a2 g2 a2 g2 f2  | 
w:   | 
c' _b a b g2 =f2 e3 d c2 b2  | a2 g2 g2 f2 e3 d d3 c  | \
w:   |   | 
d6 =a _b a g g f g4  | 
w:   | 
=a2 _b4 a2 b a g2 g f e2  | f g a4 g f g f e2 e d c2  | \
w:  TESLİM  |   | 
d3 e f2 g2 f2 e2 d2 c2  | 
w:   | 
d2 e2 d2 c2 B3 A G4  | B3 d c3 e d3 f e2 f2  | \
w:   |   | 
e3 d c3 e d2 e2 d2 c2  | 
w:   | 
B3 A G2 B2 A3 G F2 G2  | F2 G2 A B A G G4 z4  | |


